src/assets/noSupportIllustration.svg

<svg width="89" height="138" viewBox="0 0 89 138" fill="none" xmlns="http://www.w3.org/2000/svg">
<path fill-rule="evenodd" clip-rule="evenodd" d="M26.343 132.692L19.4414 135.894C19.0526 136.075 18.8042 136.462 18.8042 136.887C18.8042 137.493 19.2994 137.984 19.9103 137.984H35.4263V132.692H26.343Z" fill="#2C3437"/>
<path fill-rule="evenodd" clip-rule="evenodd" d="M52.9462 132.692L46.0445 135.894C45.6558 136.075 45.4074 136.462 45.4074 136.887C45.4074 137.493 45.9025 137.984 46.5135 137.984H62.0295V132.692H52.9462Z" fill="#2C3437"/>
<path fill-rule="evenodd" clip-rule="evenodd" d="M29.5998 58.1262L26.343 132.692H35.4263L42.91 70.246H45.8055L52.9462 132.692H62.0295L59.5417 68.4898C59.4049 64.9617 58.7577 61.4716 57.6193 58.1262H29.5998Z" fill="#C8C8C9"/>
<path fill-rule="evenodd" clip-rule="evenodd" d="M9.18488 24.0975L15.3259 37.7572L23.0905 26.4089C24.7875 23.9287 27.6203 22.4425 30.652 22.4425H35.9838H52.194H57.5257C60.5574 22.4425 63.3903 23.9287 65.0873 26.4089L72.8519 37.7572L78.9929 24.0975L85.4089 27.1029L77.5978 46.9584C76.7895 49.0129 74.7868 50.3665 72.5541 50.3665C70.8641 50.3665 69.2716 49.5867 68.2477 48.2588L63.4279 42.0025L60.7978 38.2407L60.6647 39.6412L58.2292 58.4177H44.238V58.4178H29.9486L27.5131 39.6413L27.3799 38.2407L24.7499 42.0025L19.9301 48.2588C18.9062 49.5867 17.3137 50.3665 15.6236 50.3665C13.391 50.3665 11.3883 49.0129 10.5799 46.9584L2.76889 27.1029L9.18488 24.0975Z" fill="#EFEFEF"/>
<path fill-rule="evenodd" clip-rule="evenodd" d="M9.23083 24.4483V20.1416L4.18206 17.827L1.90735e-06 21.1377L2.9274 27.5194L9.23083 24.4483Z" fill="#F5C5B6"/>
<path fill-rule="evenodd" clip-rule="evenodd" d="M78.9472 24.4483V20.1416L83.996 17.8271L88.178 21.1377L85.2506 27.5194L78.9472 24.4483Z" fill="#F5C5B6"/>
<path fill-rule="evenodd" clip-rule="evenodd" d="M60.0189 43.266L61.143 33.7633L61.6266 33.8697L60.5027 43.3725L60.0189 43.266Z" fill="#2C3437"/>
<path fill-rule="evenodd" clip-rule="evenodd" d="M27.8634 41.9459L26.6858 32.4497L27.181 32.4375L28.3586 41.9337L27.8634 41.9459Z" fill="#2C3437"/>
<path fill-rule="evenodd" clip-rule="evenodd" d="M43.2106 1.78692C42.1408 -0.0313197 36.7393 -1.10069 34.6537 1.78692C32.2044 5.17861 35.1157 8.0972 35.1157 8.0972V5.49108H40.985L43.5315 7.68413V10.7714H44.4693C44.4693 9.48631 45.5107 8.44486 46.7954 8.44486C46.9958 8.44486 47.1867 8.47775 47.3718 8.52556C47.5879 8.58101 47.7898 8.6663 47.9769 8.77722C48.3662 7.09705 48.606 4.74222 47.4299 3.28426C45.988 1.49663 43.2106 1.78692 43.2106 1.78692Z" fill="#2C3437"/>
<path fill-rule="evenodd" clip-rule="evenodd" d="M47.977 8.77724C47.79 8.66632 47.5881 8.58103 47.372 8.52558C47.1869 8.47777 46.996 8.44488 46.7956 8.44488C45.5109 8.44488 44.4695 9.48633 44.4695 10.7714H43.5317V7.68415L40.9852 5.4911H35.1159V14.9778C35.1159 16.4751 36.5092 17.5831 37.9679 17.2461L40.7244 16.5244V22.4526L44.0484 25.7464L47.372 22.4526V13.0169C48.3763 12.7595 49.1221 11.8561 49.1221 10.7714C49.1221 9.91966 48.6594 9.18265 47.977 8.77724Z" fill="#F5C5B6"/>
<path d="M38 14.3333C38.9682 13.4299 40.2523 13 42 13" stroke="#2C3437" stroke-width="0.888889"/>
</svg>

<svg width="89" height="138" fill="none" xmlns="http://www.w3.org/2000/svg"><path fill-rule="evenodd" clip-rule="evenodd" d="M26.343 132.692l-6.902 3.202a1.097 1.097 0 00-.637.993c0 .606.495 1.097 1.106 1.097h15.516v-5.292h-9.083zM52.946 132.692l-6.901 3.202a1.097 1.097 0 00-.638.993c0 .606.496 1.097 1.107 1.097h15.515v-5.292h-9.083z" fill="#2C3437"/><path fill-rule="evenodd" clip-rule="evenodd" d="M29.6 58.126l-3.257 74.566h9.083l7.484-62.446h2.896l7.14 62.446h9.084L59.541 68.49a36.565 36.565 0 00-1.923-10.364H29.6z" fill="#C8C8C9"/><path fill-rule="evenodd" clip-rule="evenodd" d="M9.185 24.098l6.14 13.66 7.765-11.35a9.157 9.157 0 017.562-3.966H57.526a9.157 9.157 0 017.561 3.967l7.765 11.348 6.14-13.66 6.417 3.006-7.811 19.855c-.808 2.055-2.811 3.409-5.044 3.409-1.69 0-3.282-.78-4.306-2.108l-4.82-6.257-2.63-3.761-.133 1.4-2.436 18.777H29.948L27.514 39.64l-.133-1.4-2.63 3.761-4.82 6.257a5.437 5.437 0 01-4.306 2.108c-2.233 0-4.236-1.354-5.044-3.409L2.769 27.103l6.416-3.006z" fill="#EFEFEF"/><path fill-rule="evenodd" clip-rule="evenodd" d="M9.23 24.448v-4.306l-5.048-2.315L0 21.137l2.927 6.382 6.304-3.07zM78.947 24.448v-4.306l5.049-2.315 4.182 3.31-2.927 6.382-6.304-3.07z" fill="#F5C5B6"/><path fill-rule="evenodd" clip-rule="evenodd" d="M60.019 43.266l1.124-9.503.484.107-1.124 9.503-.484-.107zM27.863 41.946l-1.177-9.496.495-.013 1.178 9.497-.496.012zM43.21 1.787c-1.07-1.818-6.47-2.888-8.556 0-2.45 3.392.462 6.31.462 6.31V5.491h5.869l2.547 2.193v3.087h.937a2.326 2.326 0 012.326-2.326c.2 0 .392.033.577.08.216.056.418.141.605.252.39-1.68.629-4.035-.547-5.493-1.442-1.787-4.22-1.497-4.22-1.497z" fill="#2C3437"/><path fill-rule="evenodd" clip-rule="evenodd" d="M47.977 8.777a2.305 2.305 0 00-.605-.251 2.292 2.292 0 00-.576-.081 2.326 2.326 0 00-2.327 2.326h-.937V7.684l-2.547-2.193h-5.87v9.487a2.328 2.328 0 002.853 2.268l2.756-.722v5.929l3.324 3.293 3.324-3.293v-9.436a2.32 2.32 0 001.75-2.246c0-.851-.463-1.588-1.145-1.994z" fill="#F5C5B6"/><path d="M38 14.333C38.968 13.43 40.252 13 42 13" stroke="#2C3437" stroke-width=".889"/></svg>
